Newaita-dark/apps/16/preferences-desktop-remote-desktop.svg

<?xml version="1.0" encoding="UTF-8"?>
<svg xmlns="http://www.w3.org/2000/svg" xmlns:xlink="http://www.w3.org/1999/xlink" width="16pt" height="16pt" viewBox="0 0 16 16" version="1.1">
<defs>
<linearGradient id="linear0" gradientUnits="userSpaceOnUse" x1="254" y1="233.5" x2="254" y2="254.666672" gradientTransform="matrix(0.031253,0,0,0.031253,-0.00000190753,6.719392)">
<stop offset="0" style="stop-color:rgb(0%,0%,0%);stop-opacity:0.27451;"/>
<stop offset="1" style="stop-color:rgb(0%,0%,0%);stop-opacity:0;"/>
</linearGradient>
<radialGradient id="radial0" gradientUnits="userSpaceOnUse" cx="450.908936" cy="189.579361" fx="450.908936" fy="189.579361" r="21.166656" gradientTransform="matrix(0.0000000870852,-0.0390662,-0.0703192,-0.0000000507693,26.726846,31.797665)">
<stop offset="0" style="stop-color:rgb(0%,0%,0%);stop-opacity:0.313725;"/>
<stop offset="0.222222" style="stop-color:rgb(0%,0%,0%);stop-opacity:0.27451;"/>
<stop offset="1" style="stop-color:rgb(0%,0%,0%);stop-opacity:0;"/>
</radialGradient>
<radialGradient id="radial1" gradientUnits="userSpaceOnUse" cx="450.908936" cy="189.579361" fx="450.908936" fy="189.579361" r="21.166656" gradientTransform="matrix(-0.0000000870852,0.0390662,0.0703192,0.0000000507693,-10.850331,-3.76374)">
<stop offset="0" style="stop-color:rgb(0%,0%,0%);stop-opacity:0.313725;"/>
<stop offset="0.222222" style="stop-color:rgb(0%,0%,0%);stop-opacity:0.27451;"/>
<stop offset="1" style="stop-color:rgb(0%,0%,0%);stop-opacity:0;"/>
</radialGradient>
<radialGradient id="radial2" gradientUnits="userSpaceOnUse" cx="450.908936" cy="189.579361" fx="450.908936" fy="189.579361" r="21.166656" gradientTransform="matrix(-0.0000000870852,-0.0390662,0.0703192,-0.0000000507693,-10.850331,31.797665)">
<stop offset="0" style="stop-color:rgb(0%,0%,0%);stop-opacity:0.313725;"/>
<stop offset="0.222222" style="stop-color:rgb(0%,0%,0%);stop-opacity:0.27451;"/>
<stop offset="1" style="stop-color:rgb(0%,0%,0%);stop-opacity:0;"/>
</radialGradient>
<radialGradient id="radial3" gradientUnits="userSpaceOnUse" cx="450.908936" cy="189.579361" fx="450.908936" fy="189.579361" r="21.166656" gradientTransform="matrix(0.0000000870852,0.0390662,-0.0703192,0.0000000507693,26.726845,-3.763741)">
<stop offset="0" style="stop-color:rgb(0%,0%,0%);stop-opacity:0.313725;"/>
<stop offset="0.222222" style="stop-color:rgb(0%,0%,0%);stop-opacity:0.27451;"/>
<stop offset="1" style="stop-color:rgb(0%,0%,0%);stop-opacity:0;"/>
</radialGradient>
<linearGradient id="linear1" gradientUnits="userSpaceOnUse" x1="306.916656" y1="-25.791676" x2="305.954559" y2="-135.329163" gradientTransform="matrix(0.0376748,0,0,0.108706,-2.927007,16.820674)">
<stop offset="0" style="stop-color:rgb(36.078431%,41.960784%,75.294118%);stop-opacity:1;"/>
<stop offset="1" style="stop-color:rgb(47.45098%,52.54902%,79.607843%);stop-opacity:1;"/>
</linearGradient>
<linearGradient id="linear2" gradientUnits="userSpaceOnUse" x1="1120" y1="1695.118164" x2="1120" y2="255.118118" gradientTransform="matrix(0.00826902,0,0,0.00826902,0,0.00683945)">
<stop offset="0" style="stop-color:rgb(69.019608%,74.509804%,77.254902%);stop-opacity:1;"/>
<stop offset="1" style="stop-color:rgb(81.176471%,84.705882%,86.27451%);stop-opacity:1;"/>
</linearGradient>
<linearGradient id="linear3" gradientUnits="userSpaceOnUse" x1="444.5" y1="185.875" x2="444.5" y2="148.833328" gradientTransform="matrix(0.5,0,0,0.571428,-105.833473,106.337929)">
<stop offset="0" style="stop-color:rgb(47.058824%,56.470588%,61.176471%);stop-opacity:1;"/>
<stop offset="1" style="stop-color:rgb(37.647059%,49.019608%,54.509804%);stop-opacity:1;"/>
</linearGradient>
<linearGradient id="linear4" gradientUnits="userSpaceOnUse" x1="444.5" y1="185.875" x2="444.5" y2="148.833328" gradientTransform="matrix(0.5,0,0,0.571428,-63.500114,106.337929)">
<stop offset="0" style="stop-color:rgb(47.058824%,56.470588%,61.176471%);stop-opacity:1;"/>
<stop offset="1" style="stop-color:rgb(37.647059%,49.019608%,54.509804%);stop-opacity:1;"/>
</linearGradient>
<linearGradient id="linear5" gradientUnits="userSpaceOnUse" x1="444.5" y1="185.875" x2="444.5" y2="148.833328" gradientTransform="matrix(0.5,0,0,0.571428,-21.166803,106.337929)">
<stop offset="0" style="stop-color:rgb(47.058824%,56.470588%,61.176471%);stop-opacity:1;"/>
<stop offset="1" style="stop-color:rgb(37.647059%,49.019608%,54.509804%);stop-opacity:1;"/>
</linearGradient>
<linearGradient id="linear6" gradientUnits="userSpaceOnUse" x1="444.5" y1="185.875" x2="444.5" y2="148.833328" gradientTransform="matrix(0.5,0,0,0.571428,169.333206,106.337929)">
<stop offset="0" style="stop-color:rgb(47.058824%,56.470588%,61.176471%);stop-opacity:1;"/>
<stop offset="1" style="stop-color:rgb(37.647059%,49.019608%,54.509804%);stop-opacity:1;"/>
</linearGradient>
<linearGradient id="linear7" gradientUnits="userSpaceOnUse" x1="254" y1="233.5" x2="254" y2="-147.5" gradientTransform="matrix(0.514286,0,0,0.514286,123.371391,1.079808)">
<stop offset="0" style="stop-color:rgb(69.019608%,74.509804%,77.254902%);stop-opacity:1;"/>
<stop offset="1" style="stop-color:rgb(81.176471%,84.705882%,86.27451%);stop-opacity:1;"/>
</linearGradient>
</defs>
<g id="surface1">
<path style=" stroke:none;fill-rule:nonzero;fill:url(#linear0);" d="M 2.316406 14.015625 L 13.5625 14.015625 L 13.5625 14.679688 L 2.316406 14.679688 Z M 2.316406 14.015625 "/>
<path style=" stroke:none;fill-rule:nonzero;fill:url(#radial0);" d="M 13.5625 14.015625 L 14.882812 14.015625 L 14.882812 13.355469 L 13.5625 13.355469 Z M 13.5625 14.015625 "/>
<path style=" stroke:none;fill-rule:nonzero;fill:url(#radial1);" d="M 2.316406 14.015625 L 0.992188 14.015625 L 0.992188 14.679688 L 2.316406 14.679688 Z M 2.316406 14.015625 "/>
<path style=" stroke:none;fill-rule:nonzero;fill:url(#radial2);" d="M 2.316406 14.015625 L 0.992188 14.015625 L 0.992188 13.355469 L 2.316406 13.355469 Z M 2.316406 14.015625 "/>
<path style=" stroke:none;fill-rule:nonzero;fill:url(#radial3);" d="M 13.5625 14.015625 L 14.882812 14.015625 L 14.882812 14.679688 L 13.5625 14.679688 Z M 13.5625 14.015625 "/>
<path style=" stroke:none;fill-rule:nonzero;fill:url(#linear1);" d="M 1.652344 2.109375 L 14.222656 2.109375 C 14.589844 2.109375 14.882812 2.40625 14.882812 2.769531 L 14.882812 13.355469 C 14.882812 13.722656 14.589844 14.015625 14.222656 14.015625 L 1.652344 14.015625 C 1.289062 14.015625 0.992188 13.722656 0.992188 13.355469 L 0.992188 2.769531 C 0.992188 2.40625 1.289062 2.109375 1.652344 2.109375 Z M 1.652344 2.109375 "/>
<path style=" stroke:none;fill-rule:nonzero;fill:rgb(0%,0%,0%);fill-opacity:0.235294;" d="M 1.652344 14.023438 C 1.289062 14.023438 0.992188 13.726562 0.992188 13.363281 L 0.992188 13.191406 C 0.992188 13.554688 1.289062 13.851562 1.652344 13.851562 L 14.222656 13.851562 C 14.589844 13.851562 14.882812 13.554688 14.882812 13.191406 L 14.882812 13.363281 C 14.882812 13.726562 14.589844 14.023438 14.222656 14.023438 Z M 1.652344 14.023438 "/>
<path style=" stroke:none;fill-rule:nonzero;fill:url(#linear2);" d="M 3.308594 12.039062 C 2.941406 12.039062 2.644531 12.335938 2.644531 12.699219 L 2.644531 13.691406 C 2.644531 13.875 2.792969 14.023438 2.976562 14.023438 L 12.898438 14.023438 C 13.082031 14.023438 13.230469 13.875 13.230469 13.691406 L 13.230469 12.699219 C 13.230469 12.335938 12.933594 12.039062 12.570312 12.039062 Z M 3.308594 12.039062 "/>
<path style="fill-rule:nonzero;fill:url(#linear3);stroke-width:3;stroke-linecap:round;stroke-linejoin:miter;stroke:rgb(12.941177%,12.941177%,12.941177%);stroke-opacity:1;stroke-miterlimit:4;" d="M 116.363888 191.336197 C 122.238327 191.336197 126.987873 196.085743 126.987873 201.960182 C 126.987873 207.834621 122.238327 212.584168 116.363888 212.584168 C 110.614437 212.584168 105.86489 207.834621 105.86489 201.960182 C 105.86489 196.085743 110.614437 191.336197 116.363888 191.336197 Z M 116.363888 191.336197 " transform="matrix(0.031253,0,0,0.031253,0,6.719392)"/>
<path style="fill-rule:nonzero;fill:url(#linear4);stroke-width:3;stroke-linecap:round;stroke-linejoin:miter;stroke:rgb(12.941177%,12.941177%,12.941177%);stroke-opacity:1;stroke-miterlimit:4;" d="M 158.734842 191.336197 C 164.609281 191.336197 169.358827 196.085743 169.358827 201.960182 C 169.358827 207.834621 164.609281 212.584168 158.734842 212.584168 C 152.860403 212.584168 148.110856 207.834621 148.110856 201.960182 C 148.110856 196.085743 152.860403 191.336197 158.734842 191.336197 Z M 158.734842 191.336197 " transform="matrix(0.031253,0,0,0.031253,0,6.719392)"/>
<path style="fill-rule:nonzero;fill:url(#linear5);stroke-width:3;stroke-linecap:round;stroke-linejoin:miter;stroke:rgb(12.941177%,12.941177%,12.941177%);stroke-opacity:1;stroke-miterlimit:4;" d="M 201.105795 191.336197 C 206.980234 191.336197 211.604793 196.085743 211.604793 201.960182 C 211.604793 207.834621 206.980234 212.584168 201.105795 212.584168 C 195.231356 212.584168 190.48181 207.834621 190.48181 201.960182 C 190.48181 196.085743 195.231356 191.336197 201.105795 191.336197 Z M 201.105795 191.336197 " transform="matrix(0.031253,0,0,0.031253,0,6.719392)"/>
<path style="fill-rule:nonzero;fill:url(#linear6);stroke-width:3;stroke-linecap:round;stroke-linejoin:miter;stroke:rgb(12.941177%,12.941177%,12.941177%);stroke-opacity:1;stroke-miterlimit:4;" d="M 391.587605 191.336197 C 397.462044 191.336197 402.211591 196.085743 402.211591 201.960182 C 402.211591 207.834621 397.462044 212.584168 391.587605 212.584168 C 385.713166 212.584168 380.96362 207.834621 380.96362 201.960182 C 380.96362 196.085743 385.713166 191.336197 391.587605 191.336197 Z M 391.587605 191.336197 " transform="matrix(0.031253,0,0,0.031253,0,6.719392)"/>
<path style=" stroke:none;fill-rule:nonzero;fill:rgb(100%,100%,100%);fill-opacity:0.588235;" d="M 3.308594 12.039062 C 2.941406 12.039062 2.644531 12.335938 2.644531 12.699219 L 2.644531 12.859375 C 2.644531 12.492188 2.941406 12.199219 3.308594 12.199219 L 12.570312 12.199219 C 12.933594 12.199219 13.230469 12.492188 13.230469 12.859375 L 13.230469 12.699219 C 13.230469 12.335938 12.933594 12.039062 12.570312 12.039062 Z M 3.308594 12.039062 "/>
<path style=" stroke:none;fill-rule:nonzero;fill:rgb(0%,0%,0%);fill-opacity:0.235294;" d="M 2.644531 13.527344 L 2.644531 13.691406 C 2.644531 13.875 2.792969 14.023438 2.976562 14.023438 L 12.898438 14.023438 C 13.082031 14.023438 13.230469 13.875 13.230469 13.691406 L 13.230469 13.527344 C 13.230469 13.710938 13.082031 13.859375 12.898438 13.859375 L 2.976562 13.859375 C 2.792969 13.859375 2.644531 13.710938 2.644531 13.527344 Z M 2.644531 13.527344 "/>
<path style=" stroke:none;fill-rule:nonzero;fill:rgb(12.941177%,12.941177%,12.941177%);fill-opacity:1;" d="M 3.308594 11.992188 C 2.914062 11.992188 2.597656 12.308594 2.597656 12.699219 L 2.597656 13.691406 C 2.597656 13.902344 2.769531 14.070312 2.976562 14.070312 L 12.898438 14.070312 C 13.109375 14.070312 13.277344 13.902344 13.277344 13.691406 L 13.277344 12.699219 C 13.277344 12.308594 12.960938 11.992188 12.570312 11.992188 Z M 3.308594 12.085938 L 12.570312 12.085938 C 12.910156 12.085938 13.183594 12.359375 13.183594 12.699219 L 13.183594 13.691406 C 13.183594 13.851562 13.058594 13.976562 12.898438 13.976562 L 2.976562 13.976562 C 2.820312 13.976562 2.691406 13.851562 2.691406 13.691406 L 2.691406 12.699219 C 2.691406 12.359375 2.964844 12.085938 3.308594 12.085938 Z M 3.308594 12.085938 "/>
<path style=" stroke:none;fill-rule:nonzero;fill:rgb(100%,100%,100%);fill-opacity:0.392157;" d="M 1.652344 2.148438 C 1.289062 2.148438 0.992188 2.441406 0.992188 2.808594 L 0.992188 2.980469 C 0.992188 2.613281 1.289062 2.320312 1.652344 2.320312 L 14.222656 2.320312 C 14.589844 2.320312 14.882812 2.613281 14.882812 2.980469 L 14.882812 2.808594 C 14.882812 2.441406 14.589844 2.148438 14.222656 2.148438 Z M 1.652344 2.148438 "/>
<path style=" stroke:none;fill-rule:nonzero;fill:rgb(12.941177%,12.941177%,12.941177%);fill-opacity:1;" d="M 1.652344 2.0625 C 1.261719 2.0625 0.945312 2.378906 0.945312 2.769531 L 0.945312 13.355469 C 0.945312 13.746094 1.261719 14.0625 1.652344 14.0625 L 14.222656 14.0625 C 14.613281 14.0625 14.929688 13.746094 14.929688 13.355469 L 14.929688 2.769531 C 14.929688 2.378906 14.613281 2.0625 14.222656 2.0625 Z M 1.652344 2.15625 L 14.222656 2.15625 C 14.5625 2.15625 14.835938 2.429688 14.835938 2.769531 L 14.835938 13.355469 C 14.835938 13.695312 14.5625 13.96875 14.222656 13.96875 L 1.652344 13.96875 C 1.3125 13.96875 1.039062 13.695312 1.039062 13.355469 L 1.039062 2.769531 C 1.039062 2.429688 1.3125 2.15625 1.652344 2.15625 Z M 1.652344 2.15625 "/>
<path style="fill-rule:nonzero;fill:url(#linear7);stroke-width:3;stroke-linecap:round;stroke-linejoin:miter;stroke:rgb(12.941177%,12.941177%,12.941177%);stroke-opacity:1;stroke-miterlimit:4;" d="M 253.975747 -73.388523 C 210.4799 -73.388523 170.608708 -58.514944 139.111715 -33.642319 L 157.734937 -6.644897 C 183.857442 -28.017856 217.354244 -40.766638 253.975747 -40.766638 C 290.597249 -40.766638 324.094051 -28.017856 350.341544 -6.644897 L 368.839778 -33.642319 C 337.342785 -58.514944 297.471593 -73.388523 253.975747 -73.388523 Z M 253.975747 -8.144754 C 224.353575 -8.144754 197.231165 2.60422 176.358159 20.352525 L 194.98138 47.474935 C 210.4799 33.226296 231.227919 24.602119 253.975747 24.602119 C 276.848562 24.602119 297.596581 33.226296 313.095101 47.474935 L 331.718322 20.352525 C 310.845316 2.60422 283.722906 -8.144754 253.975747 -8.144754 Z M 253.975747 57.224004 C 237.977274 57.224004 223.728635 63.973359 213.72959 74.847321 L 242.726821 117.093287 C 248.60126 122.467773 259.475221 122.467773 265.224672 117.093287 L 294.221903 74.847321 C 284.347846 63.973359 269.974219 57.224004 253.975747 57.224004 Z M 253.975747 57.224004 " transform="matrix(0.031253,0,0,0.031253,0,6.719392)"/>
</g>
</svg>

<svg xmlns="http://www.w3.org/2000/svg" width="16pt" height="16pt" viewBox="0 0 16 16"><defs><linearGradient id="a" gradientUnits="userSpaceOnUse" x1="254" y1="233.5" x2="254" y2="254.667" gradientTransform="matrix(.03125 0 0 .03125 0 6.72)"><stop offset="0" stop-opacity=".275"/><stop offset="1" stop-opacity="0"/></linearGradient><radialGradient id="b" gradientUnits="userSpaceOnUse" cx="450.909" cy="189.579" fx="450.909" fy="189.579" r="21.167" gradientTransform="matrix(0 -.03907 -.07032 0 26.727 31.798)"><stop offset="0" stop-opacity=".314"/><stop offset=".222" stop-opacity=".275"/><stop offset="1" stop-opacity="0"/></radialGradient><radialGradient id="c" gradientUnits="userSpaceOnUse" cx="450.909" cy="189.579" fx="450.909" fy="189.579" r="21.167" gradientTransform="matrix(0 .03907 .07032 0 -10.85 -3.764)"><stop offset="0" stop-opacity=".314"/><stop offset=".222" stop-opacity=".275"/><stop offset="1" stop-opacity="0"/></radialGradient><radialGradient id="d" gradientUnits="userSpaceOnUse" cx="450.909" cy="189.579" fx="450.909" fy="189.579" r="21.167" gradientTransform="matrix(0 -.03907 .07032 0 -10.85 31.798)"><stop offset="0" stop-opacity=".314"/><stop offset=".222" stop-opacity=".275"/><stop offset="1" stop-opacity="0"/></radialGradient><radialGradient id="e" gradientUnits="userSpaceOnUse" cx="450.909" cy="189.579" fx="450.909" fy="189.579" r="21.167" gradientTransform="matrix(0 .03907 -.07032 0 26.727 -3.764)"><stop offset="0" stop-opacity=".314"/><stop offset=".222" stop-opacity=".275"/><stop offset="1" stop-opacity="0"/></radialGradient><linearGradient id="f" gradientUnits="userSpaceOnUse" x1="306.917" y1="-25.792" x2="305.955" y2="-135.329" gradientTransform="matrix(.03767 0 0 .1087 -2.927 16.82)"><stop offset="0" stop-color="#5c6bc0"/><stop offset="1" stop-color="#7986cb"/></linearGradient><linearGradient id="g" gradientUnits="userSpaceOnUse" x1="1120" y1="1695.118" x2="1120" y2="255.118" gradientTransform="matrix(.00827 0 0 .00827 0 .007)"><stop offset="0" stop-color="#b0bec5"/><stop offset="1" stop-color="#cfd8dc"/></linearGradient><linearGradient id="h" gradientUnits="userSpaceOnUse" x1="444.5" y1="185.875" x2="444.5" y2="148.833" gradientTransform="matrix(.5 0 0 .57143 -105.833 106.338)"><stop offset="0" stop-color="#78909c"/><stop offset="1" stop-color="#607d8b"/></linearGradient><linearGradient id="i" gradientUnits="userSpaceOnUse" x1="444.5" y1="185.875" x2="444.5" y2="148.833" gradientTransform="matrix(.5 0 0 .57143 -63.5 106.338)"><stop offset="0" stop-color="#78909c"/><stop offset="1" stop-color="#607d8b"/></linearGradient><linearGradient id="j" gradientUnits="userSpaceOnUse" x1="444.5" y1="185.875" x2="444.5" y2="148.833" gradientTransform="matrix(.5 0 0 .57143 -21.167 106.338)"><stop offset="0" stop-color="#78909c"/><stop offset="1" stop-color="#607d8b"/></linearGradient><linearGradient id="k" gradientUnits="userSpaceOnUse" x1="444.5" y1="185.875" x2="444.5" y2="148.833" gradientTransform="matrix(.5 0 0 .57143 169.333 106.338)"><stop offset="0" stop-color="#78909c"/><stop offset="1" stop-color="#607d8b"/></linearGradient><linearGradient id="l" gradientUnits="userSpaceOnUse" x1="254" y1="233.5" x2="254" y2="-147.5" gradientTransform="matrix(.51429 0 0 .51429 123.371 1.08)"><stop offset="0" stop-color="#b0bec5"/><stop offset="1" stop-color="#cfd8dc"/></linearGradient></defs><path d="M2.316 14.016h11.246v.664H2.316zm0 0" fill="url(#a)"/><path d="M13.563 14.016h1.32v-.66h-1.32zm0 0" fill="url(#b)"/><path d="M2.316 14.016H.992v.664h1.324zm0 0" fill="url(#c)"/><path d="M2.316 14.016H.992v-.66h1.324zm0 0" fill="url(#d)"/><path d="M13.563 14.016h1.32v.664h-1.32zm0 0" fill="url(#e)"/><path d="M1.652 2.11h12.57a.66.66 0 0 1 .66.66v10.585c0 .368-.292.66-.66.66H1.653a.66.66 0 0 1-.66-.66V2.77c0-.364.297-.66.66-.66zm0 0" fill="url(#f)"/><path d="M1.652 14.023a.662.662 0 0 1-.66-.66v-.172c0 .364.297.66.66.66h12.57a.66.66 0 0 0 .66-.66v.172a.66.66 0 0 1-.66.66zm0 0" fill-opacity=".235"/><path d="M3.309 12.04a.663.663 0 0 0-.664.66v.991c0 .184.148.332.332.332h9.921a.332.332 0 0 0 .332-.332V12.7a.662.662 0 0 0-.66-.66zm0 0" fill="url(#g)"/><path d="M116.364 191.336c5.874 0 10.624 4.75 10.624 10.624 0 5.875-4.75 10.624-10.624 10.624-5.75 0-10.5-4.75-10.5-10.624 0-5.874 4.75-10.624 10.5-10.624zm0 0" transform="matrix(.03125 0 0 .03125 0 6.72)" fill="url(#h)" stroke-width="3" stroke-linecap="round" stroke="#212121"/><path d="M158.735 191.336c5.874 0 10.624 4.75 10.624 10.624 0 5.875-4.75 10.624-10.624 10.624a10.615 10.615 0 0 1-10.624-10.624c0-5.874 4.75-10.624 10.624-10.624zm0 0" transform="matrix(.03125 0 0 .03125 0 6.72)" fill="url(#i)" stroke-width="3" stroke-linecap="round" stroke="#212121"/><path d="M201.106 191.336c5.874 0 10.499 4.75 10.499 10.624 0 5.875-4.625 10.624-10.5 10.624a10.615 10.615 0 0 1-10.623-10.624c0-5.874 4.75-10.624 10.624-10.624zm0 0" transform="matrix(.03125 0 0 .03125 0 6.72)" fill="url(#j)" stroke-width="3" stroke-linecap="round" stroke="#212121"/><path d="M391.588 191.336c5.874 0 10.624 4.75 10.624 10.624 0 5.875-4.75 10.624-10.624 10.624a10.615 10.615 0 0 1-10.624-10.624c0-5.874 4.75-10.624 10.624-10.624zm0 0" transform="matrix(.03125 0 0 .03125 0 6.72)" fill="url(#k)" stroke-width="3" stroke-linecap="round" stroke="#212121"/><path d="M3.309 12.04a.663.663 0 0 0-.664.66v.16a.66.66 0 0 1 .664-.66h9.261a.66.66 0 0 1 .66.66v-.16a.662.662 0 0 0-.66-.66zm0 0" fill="#fff" fill-opacity=".588"/><path d="M2.645 13.527v.164c0 .184.148.332.332.332h9.921a.332.332 0 0 0 .332-.332v-.164a.332.332 0 0 1-.332.332H2.977a.332.332 0 0 1-.332-.332zm0 0" fill-opacity=".235"/><path d="M3.309 11.992a.708.708 0 0 0-.711.707v.992c0 .211.172.38.379.38h9.921c.211 0 .38-.169.38-.38V12.7a.707.707 0 0 0-.708-.707zm0 .094h9.261c.34 0 .614.273.614.613v.992c0 .16-.125.286-.286.286H2.977a.284.284 0 0 1-.286-.286V12.7c0-.34.274-.613.618-.613zm0 0" fill="#212121"/><path d="M1.652 2.148a.66.66 0 0 0-.66.66v.172a.66.66 0 0 1 .66-.66h12.57c.368 0 .66.293.66.66V2.81a.657.657 0 0 0-.66-.66zm0 0" fill="#fff" fill-opacity=".392"/><path d="M1.652 2.063a.707.707 0 0 0-.707.707v10.585c0 .391.317.707.707.707h12.57c.391 0 .708-.316.708-.707V2.77a.707.707 0 0 0-.707-.708zm0 .093h12.57c.34 0 .614.274.614.614v10.585c0 .34-.274.614-.613.614H1.653a.612.612 0 0 1-.614-.614V2.77c0-.34.274-.614.613-.614zm0 0" fill="#212121"/><path d="M253.976-73.389c-43.496 0-83.367 14.874-114.864 39.747l18.623 26.997c26.122-21.373 59.62-34.122 96.24-34.122 36.622 0 70.12 12.75 96.367 34.122l18.498-26.997C337.343-58.515 297.472-73.39 253.976-73.39zm0 65.244c-29.622 0-56.745 10.75-77.618 28.498l18.623 27.122c15.499-14.249 36.247-22.873 58.995-22.873 22.873 0 43.62 8.624 59.12 22.873l18.622-27.122C310.845 2.604 283.723-8.145 253.976-8.145zm0 65.369c-15.999 0-30.247 6.75-40.246 17.623l28.997 42.246c5.874 5.375 16.748 5.375 22.498 0l28.997-42.246c-9.874-10.874-24.248-17.623-40.246-17.623zm0 0" transform="matrix(.03125 0 0 .03125 0 6.72)" fill="url(#l)" stroke-width="3" stroke-linecap="round" stroke="#212121"/></svg>
